papirus/32x32/apps/cherrytree.svg

<svg height="32" viewBox="0 0 32 32.000001" width="32" xmlns="http://www.w3.org/2000/svg"><g transform="translate(-2 -1018.3622)"><path d="m23.5 1037.8622c0 0-2.76397-4.4724-3-7-.285735-3.0599 2-9 2-9" fill="none" stroke="#1f711f" stroke-linecap="round" stroke-linejoin="round" stroke-width="3"/><path d="m12.5 1039.8622c0 0 .161481-7.7583 2-11 1.748044-3.0822 8-7 8-7" fill="none" stroke="#248424" stroke-linecap="round" stroke-linejoin="round" stroke-width="3"/><path d="m23.929688 16.988281a1.50015 1.50015 0 0 1 -.632813.779297c0 0-1.508206.945772-3.228516 2.263672-1.720309 1.3178-3.633673 3.094178-4.263671 4.205078-.675233 1.1905-1.242544 3.880238-1.503907 6.148438-.261361 2.2682-.300781 4.142578-.300781 4.142578a1.5003255 1.5003255 0 0 1 -2.970703.259765c-.009139.245092-.029297.681641-.029297.681641a1.5003255 1.5003255 0 1 0 3 .06055c0 0 .03942-1.874378.300781-4.142578.261363-2.2682.828674-4.957938 1.503907-6.148438.629998-1.1109 2.543362-2.887278 4.263671-4.205078 1.72031-1.3179 3.228516-2.263672 3.228516-2.263672a1.50015 1.50015 0 0 0  .632813-1.78125z" fill-rule="evenodd" opacity=".2" overflow="visible" transform="translate(0 1004.3622)"/><path d="m22.511719 15.988281v.002a1.50015 1.50015 0 0 0 -.808594.240235c0 0-1.616305 1.012228-3.458984 2.423828-1.84268 1.4116-3.930782 3.136122-5.048829 5.107422-1.163287 2.0512-1.595992 4.861903-1.875 7.283203-.279007 2.421353-.320312 4.423781-.320312 4.423781a1.5003255 1.5003255 0 0 0  .0293.318359c.02569-.690981.08448-1.953639.291015-3.746093.279008-2.4213.711713-5.232003 1.875-7.283204 1.118047-1.9713 3.206149-3.695821 5.048829-5.107421 1.842679-1.4116 3.458984-2.423829 3.458984-2.423829a1.50015 1.50015 0 0 1  .808594-.240234 1.50015 1.50015 0 0 1  1.417969 1.003906 1.50015 1.50015 0 0 0 -1.417969-2.001953z" fill="#fff" fill-rule="evenodd" opacity=".1" overflow="visible" transform="translate(0 1004.3622)"/><circle cx="24" cy="1038.3622" fill="#c72828" r="7"/><g transform="translate(12 -3)"><path d="m12 30a7 7 0 0 0 -7 7 7 7 0 0 0  .0234375.541016 7 7 0 0 1  6.9765625-6.541016 7 7 0 0 1  6.976562 6.458984 7 7 0 0 0  .023438-.458984 7 7 0 0 0 -7-7z" fill="#fff" opacity=".2" transform="translate(0 1004.3622)"/><path d="m18.976562 36.458984a7 7 0 0 1 -6.976562 6.541016 7 7 0 0 1 -6.9765625-6.458984 7 7 0 0 0 -.0234375.458984 7 7 0 0 0  7 7 7 7 0 0 0  7-7 7 7 0 0 0 -.02344-.541016z" opacity=".3" transform="translate(0 1004.3622)"/></g><circle cx="12" cy="1041.3622" fill="#ff3737" r="7"/><path d="m12 30a7 7 0 0 0 -7 7 7 7 0 0 0  .0234375.541016 7 7 0 0 1  6.9765625-6.541016 7 7 0 0 1  6.976562 6.458984 7 7 0 0 0  .023438-.458984 7 7 0 0 0 -7-7z" fill="#fff" opacity=".2" transform="translate(0 1004.3622)"/><path d="m18.976562 36.458984a7 7 0 0 1 -6.976562 6.541016 7 7 0 0 1 -6.9765625-6.458984 7 7 0 0 0 -.0234375.458984 7 7 0 0 0  7 7 7 7 0 0 0  7-7 7 7 0 0 0 -.02344-.541016z" opacity=".3" transform="translate(0 1004.3622)"/></g></svg>

<?xml version="1.0" encoding="UTF-8" standalone="no"?>
<!-- Created with Inkscape (http://www.inkscape.org/) -->

<svg
   xmlns:dc="http://purl.org/dc/elements/1.1/"
   xmlns:cc="http://creativecommons.org/ns#"
   xmlns:rdf="http://www.w3.org/1999/02/22-rdf-syntax-ns#"
   xmlns:svg="http://www.w3.org/2000/svg"
   xmlns="http://www.w3.org/2000/svg"
   xmlns:sodipodi="http://sodipodi.sourceforge.net/DTD/sodipodi-0.dtd"
   xmlns:inkscape="http://www.inkscape.org/namespaces/inkscape"
   width="32"
   height="32"
   viewBox="0 0 32 32.000001"
   id="svg2"
   version="1.1"
   inkscape:version="0.91 r13725"
   sodipodi:docname="cherrytree.svg">
  <defs
     id="defs4" />
  <sodipodi:namedview
     id="base"
     pagecolor="#ffffff"
     bordercolor="#666666"
     borderopacity="1.0"
     inkscape:pageopacity="0.0"
     inkscape:pageshadow="2"
     inkscape:zoom="1"
     inkscape:cx="15.702277"
     inkscape:cy="26.216211"
     inkscape:document-units="px"
     inkscape:current-layer="layer1"
     showgrid="false"
     units="px"
     inkscape:window-width="1600"
     inkscape:window-height="849"
     inkscape:window-x="0"
     inkscape:window-y="0"
     inkscape:window-maximized="1" />
  <metadata
     id="metadata7">
    <rdf:RDF>
      <cc:Work
         rdf:about="">
        <dc:format>image/svg+xml</dc:format>
        <dc:type
           rdf:resource="http://purl.org/dc/dcmitype/StillImage" />
        <dc:title></dc:title>
      </cc:Work>
    </rdf:RDF>
  </metadata>
  <g
     inkscape:label="Layer 1"
     inkscape:groupmode="layer"
     id="layer1"
     transform="translate(0,-1020.3622)">
    <g
       id="g4337"
       transform="translate(-2,2)">
      <path
         sodipodi:nodetypes="cac"
         inkscape:connector-curvature="0"
         id="path4148"
         d="m 23.5,1037.8622 c 0,0 -2.76397,-4.4724 -3,-7 -0.285735,-3.0599 2,-9 2,-9"
         style="fill:none;fill-rule:evenodd;stroke:#1f711f;stroke-width:3;stroke-linecap:round;stroke-linejoin:round;stroke-miterlimit:4;stroke-dasharray:none;stroke-opacity:1" />
      <path
         sodipodi:nodetypes="cac"
         inkscape:connector-curvature="0"
         id="path4146"
         d="m 12.5,1039.8622 c 0,0 0.161481,-7.7583 2,-11 1.748044,-3.0822 8,-7 8,-7"
         style="fill:none;fill-rule:evenodd;stroke:#248424;stroke-width:3;stroke-linecap:round;stroke-linejoin:round;stroke-miterlimit:4;stroke-dasharray:none;stroke-opacity:1" />
      <path
         id="path4325"
         transform="translate(0,1004.3622)"
         d="m 23.929688,16.988281 a 1.50015,1.50015 0 0 1 -0.632813,0.779297 c 0,0 -1.508206,0.945772 -3.228516,2.263672 -1.720309,1.3178 -3.633673,3.094178 -4.263671,4.205078 -0.675233,1.1905 -1.242544,3.880238 -1.503907,6.148438 C 14.03942,32.652966 14,34.527344 14,34.527344 a 1.5003255,1.5003255 0 0 1 -2.970703,0.259765 C 11.020158,35.032201 11,35.46875 11,35.46875 a 1.5003255,1.5003255 0 1 0 3,0.06055 c 0,0 0.03942,-1.874378 0.300781,-4.142578 0.261363,-2.2682 0.828674,-4.957938 1.503907,-6.148438 0.629998,-1.1109 2.543362,-2.887278 4.263671,-4.205078 1.72031,-1.3179 3.228516,-2.263672 3.228516,-2.263672 a 1.50015,1.50015 0 0 0 0.632813,-1.78125 z"
         style="color:#000000;font-style:normal;font-variant:normal;font-weight:normal;font-stretch:normal;font-size:medium;line-height:normal;font-family:sans-serif;text-indent:0;text-align:start;text-decoration:none;text-decoration-line:none;text-decoration-style:solid;text-decoration-color:#000000;letter-spacing:normal;word-spacing:normal;text-transform:none;direction:ltr;block-progression:tb;writing-mode:lr-tb;baseline-shift:baseline;text-anchor:start;white-space:normal;clip-rule:nonzero;display:inline;overflow:visible;visibility:visible;opacity:0.2;isolation:auto;mix-blend-mode:normal;color-interpolation:sRGB;color-interpolation-filters:linearRGB;solid-color:#000000;solid-opacity:1;fill:#000000;fill-opacity:1;fill-rule:evenodd;stroke:none;stroke-width:3;stroke-linecap:round;stroke-linejoin:round;stroke-miterlimit:4;stroke-dasharray:none;stroke-dashoffset:0;stroke-opacity:1;color-rendering:auto;image-rendering:auto;shape-rendering:auto;text-rendering:auto;enable-background:accumulate"
         inkscape:connector-curvature="0" />
      <path
         id="path4329"
         transform="translate(0,1004.3622)"
         d="m 22.511719,15.988281 0,0.002 a 1.50015,1.50015 0 0 0 -0.808594,0.240235 c 0,0 -1.616305,1.012228 -3.458984,2.423828 -1.84268,1.4116 -3.930782,3.136122 -5.048829,5.107422 -1.163287,2.0512 -1.595992,4.861903 -1.875,7.283203 C 11.041305,33.466322 11,35.46875 11,35.46875 a 1.5003255,1.5003255 0 0 0 0.0293,0.318359 c 0.02569,-0.690981 0.08448,-1.953639 0.291015,-3.746093 0.279008,-2.4213 0.711713,-5.232003 1.875,-7.283204 1.118047,-1.9713 3.206149,-3.695821 5.048829,-5.107421 1.842679,-1.4116 3.458984,-2.423829 3.458984,-2.423829 a 1.50015,1.50015 0 0 1 0.808594,-0.240234 1.50015,1.50015 0 0 1 1.417969,1.003906 1.50015,1.50015 0 0 0 -1.417969,-2.001953 z"
         style="color:#000000;font-style:normal;font-variant:normal;font-weight:normal;font-stretch:normal;font-size:medium;line-height:normal;font-family:sans-serif;text-indent:0;text-align:start;text-decoration:none;text-decoration-line:none;text-decoration-style:solid;text-decoration-color:#000000;letter-spacing:normal;word-spacing:normal;text-transform:none;direction:ltr;block-progression:tb;writing-mode:lr-tb;baseline-shift:baseline;text-anchor:start;white-space:normal;clip-rule:nonzero;display:inline;overflow:visible;visibility:visible;opacity:0.1;isolation:auto;mix-blend-mode:normal;color-interpolation:sRGB;color-interpolation-filters:linearRGB;solid-color:#000000;solid-opacity:1;fill:#ffffff;fill-opacity:1;fill-rule:evenodd;stroke:none;stroke-width:3;stroke-linecap:round;stroke-linejoin:round;stroke-miterlimit:4;stroke-dasharray:none;stroke-dashoffset:0;stroke-opacity:1;color-rendering:auto;image-rendering:auto;shape-rendering:auto;text-rendering:auto;enable-background:accumulate"
         inkscape:connector-curvature="0" />
      <circle
         r="7"
         style="opacity:1;fill:#c72828;fill-opacity:1;stroke:none;stroke-width:1;stroke-linecap:round;stroke-linejoin:round;stroke-miterlimit:3.42860007;stroke-dasharray:none;stroke-opacity:1"
         id="circle4138"
         cx="24"
         cy="1038.3622" />
      <g
         transform="translate(12,-3)"
         id="g4319">
        <path
           inkscape:connector-curvature="0"
           id="path4321"
           transform="translate(0,1004.3622)"
           d="M 12,30 A 7,7 0 0 0 5,37 7,7 0 0 0 5.0234375,37.541016 7,7 0 0 1 12,31 7,7 0 0 1 18.976562,37.458984 7,7 0 0 0 19,37 7,7 0 0 0 12,30 Z"
           style="opacity:0.2;fill:#ffffff;fill-opacity:1;stroke:none;stroke-width:1;stroke-linecap:round;stroke-linejoin:round;stroke-miterlimit:3.42860007;stroke-dasharray:none;stroke-opacity:1" />
        <path
           inkscape:connector-curvature="0"
           id="path4323"
           transform="translate(0,1004.3622)"
           d="M 18.976562,36.458984 A 7,7 0 0 1 12,43 7,7 0 0 1 5.0234375,36.541016 7,7 0 0 0 5,37 a 7,7 0 0 0 7,7 7,7 0 0 0 7,-7 7,7 0 0 0 -0.02344,-0.541016 z"
           style="opacity:0.3;fill:#000000;fill-opacity:1;stroke:none;stroke-width:1;stroke-linecap:round;stroke-linejoin:round;stroke-miterlimit:3.42860007;stroke-dasharray:none;stroke-opacity:1" />
      </g>
      <circle
         r="7"
         cy="1041.3622"
         cx="12"
         id="path4136"
         style="opacity:1;fill:#ff3737;fill-opacity:1;stroke:none;stroke-width:1;stroke-linecap:round;stroke-linejoin:round;stroke-miterlimit:3.42860007;stroke-dasharray:none;stroke-opacity:1" />
      <g
         id="g4315">
        <path
           style="opacity:0.2;fill:#ffffff;fill-opacity:1;stroke:none;stroke-width:1;stroke-linecap:round;stroke-linejoin:round;stroke-miterlimit:3.42860007;stroke-dasharray:none;stroke-opacity:1"
           d="M 12,30 A 7,7 0 0 0 5,37 7,7 0 0 0 5.0234375,37.541016 7,7 0 0 1 12,31 7,7 0 0 1 18.976562,37.458984 7,7 0 0 0 19,37 7,7 0 0 0 12,30 Z"
           transform="translate(0,1004.3622)"
           id="circle4305"
           inkscape:connector-curvature="0" />
        <path
           style="opacity:0.3;fill:#000000;fill-opacity:1;stroke:none;stroke-width:1;stroke-linecap:round;stroke-linejoin:round;stroke-miterlimit:3.42860007;stroke-dasharray:none;stroke-opacity:1"
           d="M 18.976562,36.458984 A 7,7 0 0 1 12,43 7,7 0 0 1 5.0234375,36.541016 7,7 0 0 0 5,37 a 7,7 0 0 0 7,7 7,7 0 0 0 7,-7 7,7 0 0 0 -0.02344,-0.541016 z"
           transform="translate(0,1004.3622)"
           id="circle4310"
           inkscape:connector-curvature="0" />
      </g>
    </g>
  </g>
</svg>
